X:1
T:Air ('on the G string')
T:Air ('on the G string')
T:from the Orchestral Suite no. 3 BWV 1068
T:J.S. Bach (1685 - 1750)
T: a small tribute to the Angela family
T:by Mutopia-2008/10/28-1534
T:by Mutopia-2008/10/28-1534
C:J.S. Bach
C:(1685 - 1750)
Z:a small tribute to the Angela family
Z:by Mutopia-2008/10/28-1534
%%score 1 ( 2 3 )
L:1/8
Q:1/4=40
M:4/4
K:D
V:1 treble nm="Flute"
V:2 treble nm="Guitar"
V:3 treble 
V:1
 f8- | fb/g/{/f} e/d/c/d/ c2{/B} A2 | a4- a/f/(=c/B/) (e/^d/)a/g/ | g4- g/e/(B/A/) (d/c/)(g/f/) | %4
 f3 (^g/a/) d d/4e/4f/- f/e/(e/d/) |1 c/B/ B/4c/4d/- dc/B/ A4 :|2 c/B/ B/4c/4d/- dc/B/ A4 |: %7
 c2- c/d/4c/4 B/4c/4A/ a3 =c | Bb- b/a/g/f/ g2- g/4f/4e/4d/4 ^c/B/ | ^A/B/c- c/d/e- e/f/g- gf | %10
 e/d/c/B/ (c/d/4e/4) d B4 | d2- d/f/e/d/ b2- ba/^g/ | f/4e/4a/ A(B3/2c/4d/4) c>B A2 | %13
 d3 (f/e/) e3 (g/f/) | f3 (a/g/) g4 | A2- A/c/e/g/ g/e/f- f-f/g/4a/4 | d2- d/f/a/=c'/ b3 d | %17
 ^c/e/ g2 B Ae/f/4g/4- g/fe/ | d/4c/4Bc/ (dTc/)"_dim."d/!mp! d4 :| %19
V:2
 !2![Ad]4 !0!B4 | [DB]2 [EB]2 [EA]4- | [EA]=c/B/ ca/c/ B z z2 | de/d/ e/f/g/e/ [EA] z z2 | %4
 A4- A^G/A/ BG |1 [EA][FA-]A[E^G] [EA]4 :|2 [EA][FA-]A[E^G] [EA]4 |: %7
 [EA-]4 A/B/[^D=c]/E/ F/B/A/G/ | F/G/A/F/ ^D[B^d] [Be]4 | c/=d/e/f/ g/f/g/e/ f/d/c/B/ ^A/B/c | %10
 [FB][EB]/D/ [GB][F^A]/E/ F4 | EB A/^G/A B,E/F/ ^G/A/B- | B A2 ^G [EA]>D C/D/E/C/ | %13
 AB/=c/ B/^c/d- dc/B/ c/^d/e- | e^d/c/ d/e/f- f/^d/e/B/ E/B/G/E/ | z E/A/ cA- Ac/d/ D2- | %16
 DE F2 [DG]4 | E/B,/E/G/ B/A/G/F/ E/d/c/B/ AB | A2 G/F/G F4 :| %19
V:3
 DDCC B,B,A,A, | G,G,^G,G, A,A,=G,G, | F,F,E,E ^DDB,B, | EEDD CCA,A, | DDCC B,B,^G,E, |1 %5
 A,DEE, [A,C]/B,/C/D/ E/=G/F/E/ :|2 A,DEE, A,4 |: A,A,G,G, F,F,E,E, | ^DDF,B, EE=DD | %9
 CCB,B, ^A,B,C^A, | B,G,E,F, B,B,=A,A, | ^G,G,F,F, E,E,DD | CCDE A,A,=G,G, | F,F,G,G, ^G,G,A,A, | %14
 ^A,A,B,B, E,E=DD | CCA,C DD=CC | B,B,A,A, G,G,F,F, | E,E,DD CA,DG, | A,G,A,A, D4 :| %19

